;FLAVOR:Marlin
;TIME:1310
;Filament used: 53.6723m
;Layer height: 2.4
;MINX:21.508
;MINY:21.514
;MINZ:0.3
;MAXX:128.503
;MAXY:128.487
;MAXZ:89.1
;TARGET_MACHINE.NAME:Unknown
;Generated with Cura_SteamEngine 5.6.0
M105
M109 S0
M82 ;absolute extrusion mode
G28 ;Home
G1 Z15.0 F6000 ;Move the platform down 15mm
;Prime the extruder
G92 E0
G1 F200 E3
G92 E0
G92 E0
G92 E0
G1 F1500 E-6.5
;LAYER_COUNT:38
;LAYER:0
M107
;MESH:IMPRESORA CERAMIECA PIEZA 3 v1.stl
G0 F3600 X76.36 Y115.805 Z0.3
;TYPE:WALL-OUTER
G1 F1500 E0
G1 F1800 X73.635 Y115.805 E0.51259
G1 X70.919 Y115.622 E1.02464
G1 X68.193 Y115.255 E1.54204
G1 X65.523 Y114.713 E2.05453
G1 X62.923 Y114.001 E2.56161
G1 X60.316 Y113.095 E3.08077
G1 X57.808 Y112.033 E3.59309
G1 X55.374 Y110.803 E4.10608
G1 X53.026 Y109.412 E4.61944
G1 X50.796 Y107.88 E5.12837
G1 X48.62 Y106.163 E5.64976
G1 X46.617 Y104.351 E6.15783
G1 X44.722 Y102.39 E6.6708
G1 X42.947 Y100.292 E7.18774
G1 X41.332 Y98.101 E7.69974
G1 X39.874 Y95.815 E8.20977
G1 X38.555 Y93.409 E8.7259
G1 X37.413 Y90.945 E9.23675
G1 X36.43 Y88.396 E9.75065
G1 X35.621 Y85.789 E10.26411
G1 X34.984 Y83.117 E10.78081
G1 X34.535 Y80.457 E11.28825
G1 X34.259 Y77.718 E11.80608
G1 X34.17 Y74.999 E12.31781
G1 X34.259 Y72.279 E12.82974
G1 X34.536 Y69.533 E13.34889
G1 X34.984 Y66.88 E13.855
G1 X35.621 Y64.208 E14.37171
G1 X36.43 Y61.6 E14.88535
G1 X37.413 Y59.052 E15.39907
G1 X38.555 Y56.587 E15.9101
G1 X39.874 Y54.182 E16.42606
G1 X41.332 Y51.896 E16.93609
G1 X42.947 Y49.705 E17.44809
G1 X44.722 Y47.607 E17.96503
G1 X46.617 Y45.646 E18.47799
G1 X48.62 Y43.833 E18.98619
G1 X50.796 Y42.116 E19.50759
G1 X53.025 Y40.584 E20.01636
G1 X55.373 Y39.194 E20.52962
G1 X57.807 Y37.964 E21.04261
G1 X60.312 Y36.904 E21.55427
G1 X62.927 Y35.994 E22.07509
G1 X65.523 Y35.283 E22.5814
G1 X68.193 Y34.741 E23.09389
G1 X70.919 Y34.375 E23.61126
G1 X73.635 Y34.193 E24.1233
G1 X76.36 Y34.193 E24.63589
G1 X79.076 Y34.375 E25.14793
G1 X81.802 Y34.741 E25.66531
G1 X84.472 Y35.283 E26.17779
G1 X87.068 Y35.994 E26.6841
G1 X89.683 Y36.904 E27.20493
G1 X92.188 Y37.964 E27.71658
G1 X94.622 Y39.194 E28.22957
G1 X96.97 Y40.584 E28.74284
G1 X99.199 Y42.117 E29.25171
G1 X101.375 Y43.833 E29.77299
G1 X103.378 Y45.646 E30.28119
G1 X105.273 Y47.607 E30.79416
G1 X107.048 Y49.705 E31.3111
G1 X108.663 Y51.896 E31.8231
G1 X110.121 Y54.182 E32.33312
G1 X111.44 Y56.587 E32.84909
G1 X112.582 Y59.052 E33.36011
G1 X113.565 Y61.6 E33.87384
G1 X114.374 Y64.208 E34.38748
G1 X115.011 Y66.88 E34.90418
G1 X115.459 Y69.533 E35.41029
G1 X115.736 Y72.279 E35.92945
G1 X115.825 Y74.998 E36.44118
G1 X115.736 Y77.718 E36.9531
G1 X115.46 Y80.457 E37.47093
G1 X115.01 Y83.117 E37.9784
G1 X114.374 Y85.789 E38.49506
G1 X113.565 Y88.396 E39.00852
G1 X112.582 Y90.945 E39.52242
G1 X111.44 Y93.409 E40.03328
G1 X110.121 Y95.815 E40.54941
G1 X108.663 Y98.101 E41.05943
G1 X107.048 Y100.292 E41.57143
G1 X105.273 Y102.39 E42.08837
G1 X103.378 Y104.351 E42.60134
G1 X101.375 Y106.163 E43.10941
G1 X99.199 Y107.88 E43.63081
G1 X96.969 Y109.412 E44.13973
G1 X94.621 Y110.803 E44.65309
G1 X92.188 Y112.033 E45.16591
G1 X89.679 Y113.095 E45.67841
G1 X87.072 Y114.001 E46.19757
G1 X84.472 Y114.713 E46.70465
G1 X81.802 Y115.255 E47.21713
G1 X79.076 Y115.622 E47.73454
G1 X76.36 Y115.805 E48.24659
G0 F3600 X78.355 Y115.671
G0 X77.95 Y109.586
G0 X76.162 Y109.706
G0 X76.229 Y112.005
;TYPE:SKIN
G1 F1800 X73.766 Y112.005 E48.70989
G1 X71.31 Y111.838 E49.17295
G1 X68.807 Y111.502 E49.648
G1 X66.402 Y111.014 E50.10961
G1 X64.068 Y110.375 E50.56481
G1 X61.68 Y109.545 E51.04036
G1 X59.412 Y108.586 E51.50356
G1 X57.195 Y107.463 E51.97104
G1 X55.069 Y106.206 E52.43562
G1 X53.07 Y104.832 E52.8919
G1 X51.06 Y103.246 E53.37352
G1 X49.264 Y101.623 E53.82887
G1 X47.548 Y99.843 E54.29395
G1 X45.921 Y97.923 E54.76735
G1 X44.471 Y95.956 E55.22702
G1 X43.146 Y93.875 E55.69108
G1 X41.947 Y91.691 E56.15974
G1 X40.918 Y89.467 E56.62069
G1 X40.024 Y87.152 E57.0875
G1 X39.286 Y84.771 E57.5564
G1 X38.707 Y82.346 E58.02538
G1 X38.306 Y79.97 E58.47864
G1 X38.053 Y77.457 E58.95374
G1 X37.974 Y75 E59.41615
G1 X38.054 Y72.52 E59.8829
G1 X38.306 Y70.03 E60.35367
G1 X38.707 Y67.651 E60.80749
G1 X39.289 Y65.217 E61.27824
G1 X40.022 Y62.847 E61.74489
G1 X40.918 Y60.53 E62.21218
G1 X41.947 Y58.305 E62.67331
G1 X43.146 Y56.122 E63.14181
G1 X44.471 Y54.041 E63.60587
G1 X45.921 Y52.074 E64.06554
G1 X47.548 Y50.154 E64.53893
G1 X49.266 Y48.374 E65.00428
G1 X51.059 Y46.751 E65.4592
G1 X53.073 Y45.162 E65.94176
G1 X55.068 Y43.79 E66.39721
G1 X57.193 Y42.534 E66.86154
G1 X59.411 Y41.411 E67.32919
G1 X61.666 Y40.458 E67.78969
G1 X64.081 Y39.618 E68.27066
G1 X66.402 Y38.982 E68.72335
G1 X68.808 Y38.494 E69.18514
G1 X71.309 Y38.159 E69.6598
G1 X73.766 Y37.994 E70.12301
G1 X76.229 Y37.994 E70.58632
G1 X78.686 Y38.159 E71.04953
G1 X81.187 Y38.494 E71.52419
G1 X83.593 Y38.982 E71.98599
G1 X85.914 Y39.618 E72.43867
G1 X88.329 Y40.458 E72.91964
G1 X90.584 Y41.411 E73.38015
G1 X92.802 Y42.534 E73.84779
G1 X94.912 Y43.782 E74.30893
G1 X96.947 Y45.182 E74.77356
G1 X98.928 Y46.744 E75.2481
G1 X100.73 Y48.374 E75.70516
G1 X102.447 Y50.154 E76.17038
G1 X104.074 Y52.074 E76.64377
G1 X105.524 Y54.041 E77.10345
G1 X106.849 Y56.122 E77.56751
G1 X108.048 Y58.305 E78.036
G1 X109.077 Y60.53 E78.49713
G1 X109.973 Y62.847 E78.96442
G1 X110.706 Y65.217 E79.43107
G1 X111.288 Y67.651 E79.90182
G1 X111.689 Y70.03 E80.35564
G1 X111.941 Y72.52 E80.82641
G1 X112.021 Y74.999 E81.29297
G1 X111.942 Y77.457 E81.75557
G1 X111.689 Y79.963 E82.22936
G1 X111.287 Y82.342 E82.68321
G1 X110.703 Y84.79 E83.15661
G1 X109.971 Y87.152 E83.62176
G1 X109.077 Y89.467 E84.08857
G1 X108.048 Y91.69 E84.54936
G1 X106.849 Y93.875 E85.01818
G1 X105.524 Y95.956 E85.48224
G1 X104.074 Y97.923 E85.94191
G1 X102.447 Y99.843 E86.41531
G1 X100.731 Y101.623 E86.88039
G1 X98.935 Y103.246 E87.33574
G1 X96.925 Y104.832 E87.81736
G1 X94.926 Y106.206 E88.27364
G1 X92.806 Y107.459 E88.73687
G1 X90.578 Y108.589 E89.20679
G1 X88.315 Y109.545 E89.6689
G1 X85.927 Y110.375 E90.14445
G1 X83.593 Y111.014 E90.59965
G1 X81.188 Y111.502 E91.06126
G1 X78.685 Y111.838 E91.53631
G1 X76.229 Y112.005 E91.99937
G0 F3600 X76.162 Y109.706
G0 X62.53 Y107.41
G0 X62.433 Y107.688
G1 F1800 X42.338 Y87.592 E97.3452
G0 F3600 X42.616 Y87.487
G0 X40.623 Y79.875
G0 X40.327 Y79.924
G1 F1800 X70.052 Y109.65 E105.25282
G0 F3600 X70.091 Y109.359
G0 X76.062 Y109.705
G0 X76.062 Y110.003
G1 F1800 X40.008 Y73.949 E114.84396
G0 F3600 X40.305 Y73.959
G0 X40.833 Y68.871
G0 X40.537 Y68.821
G1 F1800 X81.177 Y109.462 E125.6552
G0 F3600 X81.119 Y109.17
G0 X85.609 Y108.054
G0 X85.705 Y108.333
G1 F1800 X41.666 Y64.294 E137.37052
G0 F3600 X41.951 Y64.383
G0 X43.53 Y60.355
G0 X43.259 Y60.229
G1 F1800 X89.779 Y106.75 E149.74597
G0 F3600 X89.645 Y106.483
G0 X93.294 Y104.5
G0 X93.444 Y104.757
G1 F1800 X45.24 Y56.554 E162.56914
G0 F3600 X45.492 Y56.715
G0 X47.794 Y53.416
G0 X47.567 Y53.223
G1 F1800 X96.758 Y102.415 E175.65513
G0 F3600 X96.576 Y102.183
G0 X99.541 Y99.547
G0 X99.754 Y99.754
G1 F1800 X50.242 Y50.242 E188.82638
G0 F3600 X50.455 Y50.449
G0 X53.419 Y47.813
G0 X53.237 Y47.58
G1 F1800 X102.427 Y96.771 E201.91211
G0 F3600 X102.202 Y96.58
G0 X104.504 Y93.28
G0 X104.754 Y93.44
G1 F1800 X56.55 Y45.237 E214.73528
G0 F3600 X56.701 Y45.496
G0 X60.35 Y43.514
G0 X60.215 Y43.245
G1 F1800 X106.735 Y89.765 E227.11059
G0 F3600 X106.466 Y89.639
G0 X108.045 Y85.611
G0 X108.327 Y85.699
G1 F1800 X64.29 Y41.662 E238.82538
G0 F3600 X64.386 Y41.942
G0 X68.875 Y40.826
G0 X68.817 Y40.532
G1 F1800 X109.455 Y81.171 E249.63609
G0 F3600 X109.162 Y81.122
G0 X109.69 Y76.035
G0 X109.986 Y76.045
G1 F1800 X73.935 Y39.993 E259.22656
G0 F3600 X73.935 Y40.292
G0 X79.903 Y40.638
G0 X79.943 Y40.345
G1 F1800 X109.667 Y70.069 E267.13379
G0 F3600 X109.371 Y70.118
G0 X107.379 Y62.508
G0 X107.657 Y62.402
G1 F1800 X87.565 Y42.311 E272.47856
G1 X86.858 Y41.604
G0 F3600 X85.338 Y45.977
;MESH:NONMESH
G0 F600 X85.338 Y45.977 Z2.7
G0 F3600 X76.295 Y113.706
G0 X76.48 Y119.419
;TIME_ELAPSED:56.651079
;LAYER:1
M106 S255
;TYPE:WALL-OUTER
;MESH:IMPRESORA CERAMIECA PIEZA 3 v1.stl
G1 F1800 X73.515 Y119.419 E276.94042
G1 X70.558 Y119.22 E281.40031
G1 X67.591 Y118.821 E285.90538
G1 X64.684 Y118.231 E290.36915
G1 X61.845 Y117.454 E294.79852
G1 X59.021 Y116.472 E299.2978
G1 X56.286 Y115.312 E303.76844
G1 X53.635 Y113.973 E308.23778
G1 X51.079 Y112.46 E312.70753
G1 X48.632 Y110.78 E317.17421
G1 X46.305 Y108.941 E321.6375
G1 X44.103 Y106.95 E326.10485
G1 X42.04 Y104.816 E330.57146
G1 X40.124 Y102.551 E335.03588
G1 X38.337 Y100.124 E339.57135
G1 X36.763 Y97.658 E343.9738
G1 X35.33 Y95.044 E348.45977
G1 X34.079 Y92.35 E352.9296
G1 X33.013 Y89.583 E357.39182
G1 X32.129 Y86.728 E361.88939
G1 X31.439 Y83.839 E366.35916
G1 X30.951 Y80.941 E370.7816
G1 X30.651 Y77.96 E375.2902
G1 X30.554 Y74.999 E379.74844
G1 X30.651 Y72.038 E384.20667
G1 X30.953 Y69.042 E388.73803
G1 X31.443 Y66.137 E393.17136
G1 X32.126 Y63.279 E397.59331
G1 X33.012 Y60.417 E402.10183
G1 X34.081 Y57.641 E406.57832
G1 X35.327 Y54.957 E411.03133
G1 X36.763 Y52.339 E415.52475
G1 X38.337 Y49.873 E419.92719
G1 X40.124 Y47.446 E424.46267
G1 X42.04 Y45.181 E428.92708
G1 X44.103 Y43.047 E433.39369
G1 X46.305 Y41.056 E437.86105
G1 X48.632 Y39.217 E442.32434
G1 X51.079 Y37.536 E446.79187
G1 X53.634 Y36.023 E451.26032
G1 X56.286 Y34.684 E455.73101
G1 X59.016 Y33.527 E460.19295
G1 X61.85 Y32.542 E464.70793
G1 X64.689 Y31.763 E469.1381
G1 X67.585 Y31.176 E473.58475
G1 X70.558 Y30.777 E478.09877
G1 X73.515 Y30.579 E482.55856
G1 X76.48 Y30.579 E487.02042
G1 X79.437 Y30.777 E491.48021
G1 X82.41 Y31.176 E495.99422
G1 X85.306 Y31.763 E500.44088
G1 X88.145 Y32.542 E504.87104
G1 X90.979 Y33.527 E509.38602
G1 X93.709 Y34.684 E513.84797
G1 X96.361 Y36.023 E518.31866
G1 X98.916 Y37.536 E522.78711
G1 X101.363 Y39.217 E527.25464
G1 X103.69 Y41.056 E531.71793
G1 X105.892 Y43.047 E536.18529
G1 X107.955 Y45.181 E540.65189
G1 X109.871 Y47.446 E545.11631
G1 X111.658 Y49.873 E549.65178
G1 X113.232 Y52.339 E554.05423
G1 X114.668 Y54.957 E558.54765
G1 X115.914 Y57.641 E563.00066
G1 X116.983 Y60.417 E567.47715
G1 X117.869 Y63.279 E571.98567
G1 X118.552 Y66.137 E576.40762
G1 X119.042 Y69.042 E580.84094
G1 X119.344 Y72.038 E585.37231
G1 X119.441 Y74.999 E589.83054
G1 X119.344 Y77.96 E594.28878
G1 X119.044 Y80.941 E598.79738
G1 X118.555 Y83.839 E603.22006
G1 X117.866 Y86.728 E607.68949
G1 X116.982 Y89.583 E612.18706
G1 X115.916 Y92.35 E616.64928
G1 X114.665 Y95.044 E621.11911
G1 X113.232 Y97.658 E625.60508
G1 X111.658 Y100.124 E630.00752
G1 X109.871 Y102.551 E634.543
G1 X107.955 Y104.816 E639.00742
G1 X105.892 Y106.95 E643.47402
G1 X103.69 Y108.941 E647.94138
G1 X101.363 Y110.78 E652.40467
G1 X98.916 Y112.46 E656.87135
G1 X96.36 Y113.974 E661.34186
G1 X93.709 Y115.312 E665.81053
G1 X90.974 Y116.472 E670.28116
G1 X88.15 Y117.454 E674.78045
G1 X85.311 Y118.231 E679.20982
G1 X82.404 Y118.821 E683.67359
G1 X79.437 Y119.22 E688.17866
G1 X76.48 Y119.419 E692.63855
G0 F5400 X78.475 Y119.285
G0 X78.068 Y113.2
G0 X76.282 Y113.32
G0 X76.349 Y115.619
;TYPE:SKIN
G1 F1800 X73.646 Y115.619 E696.70614
G1 X70.948 Y115.436 E700.77554
G1 X68.205 Y115.068 E704.94031
G1 X65.562 Y114.532 E708.99858
G1 X62.999 Y113.83 E712.99755
G1 X60.377 Y112.918 E717.17512
G1 X57.884 Y111.862 E721.24939
G1 X55.459 Y110.636 E725.3385
G1 X53.122 Y109.254 E729.42422
G1 X50.886 Y107.718 E733.50649
G1 X48.762 Y106.039 E737.58081
G1 X46.75 Y104.221 E741.66149
G1 X44.866 Y102.269 E745.74396
G1 X43.11 Y100.195 E749.83343
G1 X41.46 Y97.954 E754.02128
G1 X40.041 Y95.729 E757.99252
G1 X38.721 Y93.324 E762.12096
G1 X37.582 Y90.871 E766.19087
G1 X36.607 Y88.339 E770.27387
G1 X35.79 Y85.701 E774.42968
G1 X35.164 Y83.081 E778.48335
G1 X34.722 Y80.453 E782.49363
G1 X34.445 Y77.701 E786.65588
G1 X34.358 Y74.999 E790.72408
G1 X34.445 Y72.299 E794.78927
G1 X34.726 Y69.518 E798.99555
G1 X35.17 Y66.889 E803.00781
G1 X35.79 Y64.298 E807.01694
G1 X36.605 Y61.665 E811.16467
G1 X37.586 Y59.118 E815.27197
G1 X38.718 Y56.677 E819.32107
G1 X40.041 Y54.269 E823.45564
G1 X41.46 Y52.043 E827.42816
G1 X43.11 Y49.802 E831.616
G1 X44.866 Y47.728 E835.70547
G1 X46.75 Y45.776 E839.78795
G1 X48.762 Y43.958 E843.86862
G1 X50.886 Y42.279 E847.94295
G1 X53.123 Y40.742 E852.0273
G1 X55.458 Y39.359 E856.1112
G1 X57.883 Y38.134 E860.19964
G1 X60.376 Y37.079 E864.27331
G1 X62.999 Y36.167 E868.4523
G1 X65.567 Y35.462 E872.45973
G1 X68.198 Y34.929 E876.4994
G1 X70.948 Y34.561 E880.67461
G1 X73.646 Y34.38 E884.74381
G1 X76.349 Y34.38 E888.8114
G1 X79.048 Y34.561 E892.8821
G1 X81.797 Y34.929 E897.05582
G1 X84.428 Y35.462 E901.0955
G1 X86.996 Y36.167 E905.10292
G1 X89.619 Y37.079 E909.28191
G1 X92.112 Y38.134 E913.35559
G1 X94.537 Y39.359 E917.44402
G1 X96.872 Y40.742 E921.52792
G1 X99.109 Y42.279 E925.61228
G1 X101.233 Y43.958 E929.6866
G1 X103.245 Y45.776 E933.76728
G1 X105.129 Y47.727 E937.84867
G1 X106.877 Y49.793 E941.92117
G1 X108.541 Y52.052 E946.14332
G1 X109.954 Y54.269 E950.09956
G1 X111.277 Y56.677 E954.23413
G1 X112.409 Y59.118 E958.28323
G1 X113.39 Y61.665 E962.39054
G1 X114.205 Y64.298 E966.53826
G1 X114.825 Y66.889 E970.54739
G1 X115.269 Y69.518 E974.55965
G1 X115.55 Y72.299 E978.76593
G1 X115.637 Y75 E982.83263
G1 X115.55 Y77.701 E986.89932
G1 X115.273 Y80.453 E991.06158
G1 X114.832 Y83.067 E995.05083
G1 X114.198 Y85.721 E999.15706
G1 X113.388 Y88.339 E1003.281
G1 X112.413 Y90.871 E1007.364
G1 X111.274 Y93.324 E1011.43391
G1 X109.954 Y95.729 E1015.56235
G1 X108.535 Y97.954 E1019.5336
G1 X106.885 Y100.195 E1023.72144
G1 X105.129 Y102.269 E1027.81091
G1 X103.245 Y104.221 E1031.89339
G1 X101.233 Y106.039 E1035.97406
G1 X99.109 Y107.718 E1040.04839
G1 X96.872 Y109.254 E1044.13189
G1 X94.536 Y110.638 E1048.21786
G1 X92.112 Y111.862 E1052.30426
G1 X89.618 Y112.918 E1056.37991
G1 X86.996 Y113.83 E1060.55748
G1 X84.433 Y114.532 E1064.55646
G1 X81.79 Y115.068 E1068.61473
G1 X79.047 Y115.436 E1072.7795
G1 X76.349 Y115.619 E1076.8489
G0 F5400 X76.282 Y113.32
G0 X96.538 Y106.694
G0 X96.706 Y106.94
G1 F1800 X106.988 Y96.658 E1098.73076
G1 X107.695 Y95.951
G0 F5400 X107.263 Y95.675
G0 X111.748 Y85.873
G0 X112.029 Y85.96
G1 F1800 X85.947 Y112.042 E1154.23773
G0 F5400 X85.869 Y111.754
G0 X78.857 Y113.144
G0 X78.895 Y113.437
G1 F1800 X113.415 Y78.917 E1227.70221
G0 F5400 X113.122 Y78.887
G0 X113.277 Y73.111
G0 X113.573 Y73.102
G1 F1800 X73.099 Y113.576 E1313.83782
G0 F5400 X73.119 Y113.28
G0 X68.088 Y112.699
G0 X68.029 Y112.99
G1 F1800 X112.988 Y68.03 E1409.51935
G0 F5400 X112.693 Y68.079
G0 X111.581 Y63.586
G0 X111.862 Y63.5
G1 F1800 X63.481 Y111.88 E1512.48135
G0 F5400 X63.578 Y111.601
G0 X59.498 Y110.05
G0 X59.381 Y110.324
G1 F1800 X110.325 Y59.379 E1620.89999
G0 F5400 X110.054 Y59.504
G0 X108.159 Y55.771
G0 X108.417 Y55.63
G92 E0
G1 F1800 X55.633 Y108.415 E112.33447
G0 F5400 X55.785 Y108.158
G0 X52.368 Y105.947
G0 X52.2 Y106.191
G1 F1800 X106.176 Y52.215 E227.20466
G0 F5400 X105.939 Y52.389
G0 X103.436 Y49.28
G0 X103.654 Y49.08
G1 F1800 X49.093 Y103.642 E343.32089
G0 F5400 X49.294 Y103.421
G0 X46.484 Y100.629
G0 X46.259 Y100.818
G1 F1800 X100.808 Y46.269 E459.41052
G0 F5400 X100.607 Y46.49
G0 X97.521 Y43.977
G0 X97.69 Y43.731
G1 F1800 X43.741 Y97.679 E574.22218
G0 F5400 X43.98 Y97.504
G0 X41.772 Y94.109
G0 X41.512 Y94.251
G1 F1800 X94.25 Y41.513 E686.45769
G0 F5400 X94.097 Y41.771
G0 X90.37 Y39.893
G0 X90.487 Y39.619
G1 F1800 X39.612 Y90.494 E794.72842
G0 F5400 X39.883 Y90.369
G0 X38.372 Y86.274
G0 X38.089 Y86.361
G1 F1800 X86.379 Y38.071 E897.49782
G0 F5400 X86.299 Y38.36
G0 X81.76 Y37.267
G0 X81.819 Y36.974
G1 F1800 X36.98 Y81.813 E992.9229
G0 F5400 X37.276 Y81.764
G0 X36.712 Y76.712
G0 X36.415 Y76.721
G1 F1800 X76.726 Y36.411 E1078.71056
G0 F5400 X76.706 Y36.705
G0 X70.932 Y36.881
G0 X70.893 Y36.587
G1 F1800 X36.599 Y70.88 E1151.69301
G0 F5400 X36.893 Y70.91
G0 X38.327 Y63.866
G0 X38.044 Y63.778
G1 F1800 X63.802 Y38.02 E1206.51045
G1 X64.509 Y37.313
G0 F5400 X64.719 Y38.08
G0 X52.893 Y43.69
G0 X52.724 Y43.442
G1 F1800 X43.437 Y52.728 E1226.27372
G1 X42.73 Y53.435
G0 F5400 X46.422 Y55.793
;MESH:NONMESH
G0 F600 X46.422 Y55.793 Z5.1
G0 F5400 X76.415 Y117.32
