;FLAVOR:Marlin
;TIME:277
;Filament used: 0.382116m
;Layer height: 2
;MINX:31.011
;MINY:31.007
;MINZ:2
;MAXX:118.989
;MAXY:118.989
;MAXZ:28
;Generated with Cura_SteamEngine 5.4.0
M104 S200
M105
M109 S200
M82 ;absolute extrusion mode
G28 ;Home
G1 Z15.0 F2000 ;Move the platform
G92 E0
G92 E0
;LAYER_COUNT:14
;LAYER:0
M107
M204 S1000
G0 F7500 X44.271 Y43.518 Z2
;TYPE:SKIRT
G1 F1500 X45.716 Y42.169 E0.1315
G1 X47.005 Y41.063 E0.24448
G1 X47.61 Y40.575 E0.29619
G1 X48.558 Y39.84 E0.37598
G1 X50.131 Y38.712 E0.50474
G1 X51.895 Y37.564 E0.64474
G1 X53.318 Y36.722 E0.75473
G1 X53.996 Y36.347 E0.80627
G1 X55.228 Y35.701 E0.89881
G1 X56.828 Y34.934 E1.01684
G1 X57.465 Y34.654 E1.06312
G1 X58.758 Y34.115 E1.15631
G1 X60.313 Y33.532 E1.26678
G1 X62.34 Y32.869 E1.40864
G1 X64.211 Y32.351 E1.53778
G1 X65.873 Y31.966 E1.65127
G1 X67.972 Y31.572 E1.79333
G1 X69.446 Y31.359 E1.8924
G1 X70.399 Y31.25 E1.95621
G1 X71.615 Y31.138 E2.03744
G1 X73.721 Y31.025 E2.17773
G1 X75.218 Y31.007 E2.27732
G1 X77.315 Y31.068 E2.41687
G1 X79.201 Y31.209 E2.54268
G1 X81.109 Y31.435 E2.67049
G1 X83.12 Y31.764 E2.80604
G1 X84.816 Y32.117 E2.92128
G1 X85.529 Y32.287 E2.97003
G1 X86.787 Y32.617 E3.05655
G1 X88.835 Y33.239 E3.19893
G1 X90.411 Y33.795 E3.31009
G1 X92.226 Y34.52 E3.4401
G1 X93.766 Y35.211 E3.55239
G1 X95.897 Y36.289 E3.71125
G1 X97.517 Y37.207 E3.83511
G1 X99.049 Y38.162 E3.9552
G1 X99.608 Y38.535 E3.9999
G1 X100.604 Y39.225 E4.0805
G1 X102.226 Y40.444 E4.21547
G1 X103.573 Y41.549 E4.33136
G1 X105.2 Y43.011 E4.47687
G1 X106.482 Y44.271 E4.59644
G1 X107.682 Y45.55 E4.7131
G1 X109.081 Y47.182 E4.85609
G1 X110.033 Y48.39 E4.9584
G1 X111.39 Y50.281 E5.11323
G1 X112.436 Y51.895 E5.24117
G1 X113.279 Y53.32 E5.35131
G1 X113.642 Y53.977 E5.40124
G1 X114.347 Y55.322 E5.50225
G1 X114.996 Y56.675 E5.60207
G1 X115.344 Y57.461 E5.65925
G1 X115.812 Y58.579 E5.73988
G1 X116.543 Y60.525 E5.87816
G1 X117.131 Y62.34 E6.00507
G1 X117.649 Y64.211 E6.13421
G1 X118.034 Y65.872 E6.24763
G1 X118.428 Y67.971 E6.38969
G1 X118.656 Y69.566 E6.49687
G1 X118.752 Y70.412 E6.55351
G1 X118.866 Y71.665 E6.6372
G1 X118.975 Y73.732 E6.77489
G1 X118.989 Y75.618 E6.90035
G1 X118.92 Y77.547 E7.02875
G1 X118.807 Y79.04 E7.12835
G1 X118.574 Y81.046 E7.26269
G1 X118.457 Y81.833 E7.31561
G1 X118.202 Y83.298 E7.41453
G1 X117.851 Y84.959 E7.52746
G1 X117.716 Y85.518 E7.56572
G1 X117.329 Y86.979 E7.66625
G1 X116.761 Y88.835 E7.79537
G1 X116.205 Y90.411 E7.90654
G1 X115.48 Y92.226 E8.03655
G1 X114.789 Y93.766 E8.14883
G1 X113.711 Y95.897 E8.30769
G1 X112.793 Y97.517 E8.43155
G1 X111.838 Y99.049 E8.55164
G1 X111.465 Y99.608 E8.59634
G1 X110.775 Y100.604 E8.67694
G1 X109.556 Y102.226 E8.81191
G1 X108.451 Y103.573 E8.92781
G1 X106.989 Y105.2 E9.07331
G1 X105.729 Y106.482 E9.19288
G1 X104.284 Y107.831 E9.32438
G1 X102.901 Y109.015 E9.44549
G1 X102.401 Y109.417 E9.48816
G1 X101.442 Y110.16 E9.56886
G1 X99.869 Y111.288 E9.69762
G1 X98.101 Y112.438 E9.83792
G1 X96.478 Y113.392 E9.96315
G1 X94.969 Y114.198 E10.07695
G1 X93.071 Y115.109 E10.217
G1 X91.246 Y115.883 E10.34887
G1 X89.852 Y116.41 E10.448
G1 X87.66 Y117.131 E10.6015
G1 X85.789 Y117.649 E10.73064
G1 X84.127 Y118.034 E10.84412
G1 X82.028 Y118.428 E10.98619
G1 X80.554 Y118.641 E11.08526
G1 X79.601 Y118.75 E11.14906
G1 X78.385 Y118.862 E11.2303
G1 X76.269 Y118.975 E11.37125
G1 X74.391 Y118.989 E11.49618
G1 X72.451 Y118.92 E11.62531
G1 X70.96 Y118.807 E11.72478
G1 X68.891 Y118.565 E11.86335
G1 X66.88 Y118.236 E11.9989
G1 X65.184 Y117.883 E12.11413
G1 X64.471 Y117.713 E12.16289
G1 X63.212 Y117.383 E12.24947
G1 X61.167 Y116.761 E12.39166
G1 X59.589 Y116.205 E12.50295
G1 X57.774 Y115.48 E12.63296
G1 X56.232 Y114.788 E12.74539
G1 X54.103 Y113.711 E12.9041
G1 X52.483 Y112.793 E13.02796
G1 X50.957 Y111.842 E13.14757
G1 X50.454 Y111.507 E13.18777
G1 X49.237 Y110.658 E13.28648
G1 X47.78 Y109.56 E13.40784
G1 X46.514 Y108.525 E13.51662
G1 X45.84 Y107.939 E13.57603
G1 X44.798 Y106.987 E13.66992
G1 X43.518 Y105.729 E13.7893
G1 X42.169 Y104.284 E13.9208
G1 X41.063 Y102.995 E14.03378
G1 X40.575 Y102.39 E14.08549
G1 X39.84 Y101.442 E14.16528
G1 X38.609 Y99.718 E14.3062
G1 X37.566 Y98.107 E14.43386
G1 X36.661 Y96.575 E14.55222
G1 X36.348 Y96.006 E14.59542
G1 X35.704 Y94.778 E14.68766
G1 X35.01 Y93.338 E14.79399
G1 X34.689 Y92.619 E14.84637
G1 X34.188 Y91.426 E14.93244
G1 X33.531 Y89.683 E15.05635
G1 X32.847 Y87.59 E15.20282
G1 X32.448 Y86.166 E15.3012
G1 X31.919 Y83.906 E15.4556
G1 X31.572 Y82.029 E15.58257
G1 X31.359 Y80.554 E15.68171
G1 X31.25 Y79.601 E15.74551
G1 X31.138 Y78.385 E15.82674
G1 X31.025 Y76.268 E15.96777
G1 X31.011 Y74.382 E16.09323
G1 X31.08 Y72.453 E16.22163
G1 X31.193 Y70.96 E16.32123
G1 X31.426 Y68.955 E16.4555
G1 X31.546 Y68.142 E16.51016
G1 X31.77 Y66.845 E16.59772
G1 X32.15 Y65.036 E16.72068
G1 X32.291 Y64.451 E16.76071
G1 X32.618 Y63.208 E16.84621
G1 X33.239 Y61.165 E16.98825
G1 X33.735 Y59.75 E17.08799
G1 X34.595 Y57.599 E17.24209
G1 X35.389 Y55.864 E17.36901
G1 X36.289 Y54.103 E17.50056
G1 X37.207 Y52.483 E17.62443
G1 X38.162 Y50.951 E17.74451
G1 X38.535 Y50.392 E17.78922
G1 X39.225 Y49.396 E17.86982
G1 X40.444 Y47.774 E18.00479
G1 X41.549 Y46.427 E18.12068
G1 X43.011 Y44.8 E18.26619
G1 X44.271 Y43.518 E18.38576
G0 F7500 X47.124 Y46.322
G1 F1500 X48.321 Y45.205 E18.49467
G1 X49.61 Y44.099 E18.60765
G1 X50.067 Y43.731 E18.64668
G1 X50.889 Y43.091 E18.71598
G1 X52.462 Y41.963 E18.84474
G1 X53.932 Y41.007 E18.96138
G1 X55.355 Y40.165 E19.07137
G1 X55.86 Y39.886 E19.10975
G1 X56.961 Y39.306 E19.19253
G1 X58.442 Y38.594 E19.30184
G1 X59.011 Y38.343 E19.34321
G1 X60.171 Y37.857 E19.42687
G1 X61.564 Y37.331 E19.52592
G1 X63.414 Y36.722 E19.65548
G1 X65.122 Y36.246 E19.77342
G1 X66.618 Y35.896 E19.87563
G1 X68.544 Y35.531 E20.00602
G1 X70.018 Y35.318 E20.10509
G1 X70.774 Y35.232 E20.15571
G1 X71.836 Y35.132 E20.22666
G1 X73.769 Y35.025 E20.35544
G1 X75.266 Y35.007 E20.45503
G1 X77.024 Y35.057 E20.57202
G1 X78.738 Y35.182 E20.68634
G1 X80.463 Y35.383 E20.80186
G1 X82.474 Y35.712 E20.93742
G1 X83.888 Y36.008 E21.03351
G1 X84.601 Y36.178 E21.08227
G1 X85.631 Y36.446 E21.15307
G1 X87.512 Y37.014 E21.28377
G1 X88.927 Y37.51 E21.38352
G1 X90.742 Y38.235 E21.51353
G1 X92.121 Y38.857 E21.61416
G1 X93.932 Y39.773 E21.74916
G1 X95.405 Y40.604 E21.86166
G1 X96.83 Y41.49 E21.97328
G1 X97.337 Y41.828 E22.01381
G1 X98.207 Y42.428 E22.08411
G1 X99.689 Y43.537 E22.20724
G1 X101.036 Y44.642 E22.32314
G1 X102.396 Y45.864 E22.44476
G1 X103.678 Y47.124 E22.56433
G1 X104.649 Y48.158 E22.65869
G1 X105.939 Y49.658 E22.79029
G1 X106.891 Y50.866 E22.8926
G1 X108.037 Y52.462 E23.0233
G1 X108.993 Y53.932 E23.13995
G1 X109.836 Y55.357 E23.25009
G1 X110.102 Y55.839 E23.28671
G1 X110.742 Y57.056 E23.37817
G1 X111.34 Y58.299 E23.46993
G1 X111.658 Y59.015 E23.52204
G1 X112.07 Y59.992 E23.59258
G1 X112.74 Y61.766 E23.71872
G1 X113.278 Y63.414 E23.83404
G1 X113.754 Y65.122 E23.95198
G1 X114.104 Y66.618 E24.05419
G1 X114.469 Y68.542 E24.18445
G1 X114.682 Y70.019 E24.28372
G1 X114.768 Y70.774 E24.33427
G1 X114.882 Y72.027 E24.41796
G1 X114.975 Y73.769 E24.53401
G1 X114.991 Y75.482 E24.64796
G1 X114.931 Y77.245 E24.7653
G1 X114.818 Y78.738 E24.8649
G1 X114.617 Y80.463 E24.98043
G1 X114.515 Y81.155 E25.02696
G1 X114.288 Y82.474 E25.11599
G1 X113.961 Y84.028 E25.22162
G1 X113.848 Y84.5 E25.25391
G1 X113.502 Y85.815 E25.34436
G1 X112.986 Y87.512 E25.46235
G1 X112.49 Y88.927 E25.56209
G1 X111.765 Y90.742 E25.6921
G1 X111.143 Y92.121 E25.79273
G1 X110.227 Y93.932 E25.92773
G1 X109.396 Y95.405 E26.04023
G1 X108.51 Y96.83 E26.15185
G1 X108.172 Y97.337 E26.19238
G1 X107.572 Y98.207 E26.26269
G1 X106.463 Y99.689 E26.38581
G1 X105.358 Y101.036 E26.50171
G1 X104.136 Y102.396 E26.62333
G1 X102.876 Y103.678 E26.7429
G1 X101.679 Y104.795 E26.85181
G1 X100.391 Y105.9 E26.9647
G1 X99.943 Y106.261 E27.00297
G1 X99.111 Y106.909 E27.07312
G1 X97.538 Y108.037 E27.20188
G1 X96.068 Y108.993 E27.31853
G1 X94.585 Y109.868 E27.43307
G1 X93.23 Y110.596 E27.53539
G1 X91.504 Y111.429 E27.66288
G1 X89.832 Y112.141 E27.78376
G1 X88.438 Y112.668 E27.8829
G1 X86.586 Y113.278 E28.0126
G1 X84.878 Y113.754 E28.13055
G1 X83.382 Y114.104 E28.23275
G1 X81.456 Y114.469 E28.36315
G1 X79.982 Y114.682 E28.46222
G1 X79.226 Y114.768 E28.51283
G1 X78.164 Y114.868 E28.58379
G1 X76.231 Y114.975 E28.71257
G1 X74.526 Y114.991 E28.82599
G1 X72.753 Y114.931 E28.944
G1 X71.262 Y114.818 E29.04347
G1 X69.537 Y114.617 E29.15899
G1 X67.526 Y114.288 E29.29454
G1 X66.112 Y113.992 E29.39064
G1 X65.399 Y113.822 E29.4394
G1 X64.369 Y113.554 E29.51019
G1 X62.489 Y112.986 E29.64083
G1 X61.073 Y112.49 E29.74064
G1 X59.258 Y111.765 E29.87065
G1 X57.877 Y111.142 E29.97143
G1 X56.068 Y110.227 E30.10628
G1 X54.595 Y109.396 E30.21878
G1 X53.17 Y108.51 E30.3304
G1 X52.735 Y108.221 E30.36514
G1 X51.639 Y107.46 E30.4539
G1 X50.309 Y106.461 E30.56455
G1 X49.135 Y105.503 E30.66535
G1 X48.532 Y104.98 E30.71844
G1 X47.602 Y104.134 E30.80207
G1 X46.322 Y102.876 E30.92146
G1 X45.205 Y101.679 E31.03037
G1 X44.099 Y100.39 E31.14335
G1 X43.731 Y99.933 E31.18238
G1 X43.091 Y99.111 E31.25168
G1 X41.963 Y97.538 E31.38044
G1 X41.008 Y96.069 E31.49699
G1 X40.163 Y94.642 E31.60731
G1 X39.887 Y94.142 E31.6453
G1 X39.306 Y93.039 E31.72823
G1 X38.663 Y91.707 E31.82662
G1 X38.342 Y90.988 E31.879
G1 X37.928 Y90.007 E31.94982
G1 X37.331 Y88.434 E32.06174
G1 X36.699 Y86.511 E32.19639
G1 X36.3 Y85.087 E32.29477
G1 X35.851 Y83.172 E32.42561
G1 X35.531 Y81.457 E32.54166
G1 X35.318 Y79.982 E32.64079
G1 X35.232 Y79.226 E32.69141
G1 X35.132 Y78.164 E32.76236
G1 X35.025 Y76.231 E32.89115
G1 X35.009 Y74.518 E33.0051
G1 X35.069 Y72.755 E33.12244
G1 X35.182 Y71.262 E33.22204
G1 X35.383 Y69.537 E33.33757
G1 X35.488 Y68.823 E33.38557
G1 X35.712 Y67.526 E33.47313
G1 X36.039 Y65.973 E33.5787
G1 X36.18 Y65.388 E33.61873
G1 X36.447 Y64.365 E33.68906
G1 X37.014 Y62.488 E33.81949
G1 X37.51 Y61.073 E33.91923
G1 X38.236 Y59.256 E34.04939
G1 X38.954 Y57.678 E34.16471
G1 X39.773 Y56.068 E34.28487
G1 X40.604 Y54.595 E34.39737
G1 X41.49 Y53.17 E34.50899
G1 X41.828 Y52.663 E34.54952
G1 X42.428 Y51.793 E34.61982
G1 X43.537 Y50.311 E34.74295
G1 X44.642 Y48.964 E34.85885
G1 X45.864 Y47.604 E34.98047
G1 X47.124 Y46.322 E35.10004
;MESH:PlatoQlero.stl
G0 F7500 X40.986 Y64.275
G0 X40.181 Y67.282
G0 X39.64 Y70.345
G0 X39.369 Y73.445
G0 X39.369 Y76.555
G0 X39.64 Y79.655
G0 X40.181 Y82.718
G0 X40.986 Y85.725
G0 X42.05 Y88.648
G0 X43.366 Y91.468
G0 X44.921 Y94.162
G0 X46.706 Y96.711
G0 X48.705 Y99.095
G0 X50.905 Y101.295
G0 X53.289 Y103.294
G0 X55.838 Y105.079
G0 X58.532 Y106.634
G0 X61.352 Y107.95
G0 X64.275 Y109.014
G0 X67.282 Y109.819
G0 X70.345 Y110.36
G0 X73.445 Y110.631
G0 X75.001 Y107.998
;TYPE:WALL-OUTER
G1 F1500 X73.526 Y107.966 E35.19818
G1 X72.144 Y107.876 E35.29031
G1 X70.684 Y107.715 E35.38802
G1 X69.278 Y107.498 E35.48265
G1 X67.844 Y107.214 E35.5799
G1 X66.455 Y106.873 E35.67504
G1 X65.092 Y106.477 E35.76945
G1 X63.718 Y106.011 E35.86596
G1 X62.386 Y105.492 E35.96106
G1 X61.026 Y104.895 E36.05986
G1 X59.776 Y104.276 E36.15265
G1 X58.489 Y103.572 E36.25023
G1 X57.286 Y102.841 E36.34387
G1 X56.063 Y102.024 E36.4417
G1 X54.91 Y101.179 E36.53679
G1 X53.792 Y100.283 E36.6321
G1 X52.704 Y99.329 E36.72836
G1 X51.666 Y98.334 E36.824
G1 X50.671 Y97.296 E36.91965
G1 X49.717 Y96.208 E37.01591
G1 X48.821 Y95.09 E37.11121
G1 X47.976 Y93.937 E37.2063
G1 X47.159 Y92.714 E37.30414
G1 X46.428 Y91.511 E37.39778
G1 X45.724 Y90.224 E37.49536
G1 X45.105 Y88.974 E37.58815
G1 X44.508 Y87.614 E37.68695
G1 X43.989 Y86.282 E37.78204
G1 X43.523 Y84.908 E37.87856
G1 X43.127 Y83.545 E37.97297
G1 X42.786 Y82.156 E38.06811
G1 X42.502 Y80.722 E38.16536
G1 X42.285 Y79.316 E38.25999
G1 X42.124 Y77.856 E38.3577
G1 X42.034 Y76.474 E38.44982
G1 X42.003 Y75.001 E38.54783
G1 X42.034 Y73.526 E38.64597
G1 X42.124 Y72.144 E38.7381
G1 X42.285 Y70.684 E38.8358
G1 X42.502 Y69.278 E38.93044
G1 X42.786 Y67.844 E39.02768
G1 X43.127 Y66.455 E39.12282
G1 X43.523 Y65.092 E39.21724
G1 X43.989 Y63.718 E39.31375
G1 X44.508 Y62.386 E39.40884
G1 X45.105 Y61.026 E39.50764
G1 X45.724 Y59.776 E39.60043
G1 X46.428 Y58.489 E39.69801
G1 X47.159 Y57.286 E39.79165
G1 X47.976 Y56.063 E39.88949
G1 X48.821 Y54.91 E39.98458
G1 X49.717 Y53.792 E40.07989
G1 X50.671 Y52.704 E40.17614
G1 X51.666 Y51.666 E40.27179
G1 X52.704 Y50.671 E40.36744
G1 X53.792 Y49.717 E40.46369
G1 X54.91 Y48.821 E40.559
G1 X56.063 Y47.976 E40.65409
G1 X57.286 Y47.159 E40.75193
G1 X58.489 Y46.428 E40.84557
G1 X59.776 Y45.724 E40.94315
G1 X61.026 Y45.105 E41.03594
G1 X62.386 Y44.508 E41.13474
G1 X63.718 Y43.989 E41.22983
G1 X65.092 Y43.523 E41.32634
G1 X66.455 Y43.127 E41.42076
G1 X67.844 Y42.786 E41.5159
G1 X69.278 Y42.502 E41.61314
G1 X70.684 Y42.285 E41.70778
G1 X72.144 Y42.124 E41.80548
G1 X73.526 Y42.034 E41.89761
G1 X75.001 Y42.003 E41.99575
G1 X76.474 Y42.034 E42.09376
G1 X77.856 Y42.124 E42.18588
G1 X79.316 Y42.285 E42.28359
G1 X80.722 Y42.502 E42.37822
G1 X82.156 Y42.786 E42.47547
G1 X83.545 Y43.127 E42.57061
G1 X84.908 Y43.523 E42.66502
G1 X86.282 Y43.989 E42.76154
G1 X87.614 Y44.508 E42.85663
G1 X88.974 Y45.105 E42.95543
G1 X90.224 Y45.724 E43.04822
G1 X91.511 Y46.428 E43.1458
G1 X92.714 Y47.159 E43.23944
G1 X93.937 Y47.976 E43.33728
G1 X95.09 Y48.821 E43.43237
G1 X96.208 Y49.717 E43.52767
G1 X97.296 Y50.671 E43.62393
G1 X98.334 Y51.666 E43.71958
G1 X99.329 Y52.704 E43.81522
G1 X100.283 Y53.792 E43.91148
G1 X101.179 Y54.91 E44.00679
G1 X102.024 Y56.063 E44.10188
G1 X102.841 Y57.286 E44.19971
G1 X103.572 Y58.489 E44.29335
G1 X104.276 Y59.776 E44.39094
G1 X104.895 Y61.026 E44.48372
G1 X105.492 Y62.386 E44.58252
G1 X106.011 Y63.718 E44.67762
G1 X106.477 Y65.092 E44.77413
G1 X106.873 Y66.455 E44.86854
G1 X107.214 Y67.844 E44.96368
G1 X107.498 Y69.278 E45.06093
G1 X107.715 Y70.684 E45.15556
G1 X107.876 Y72.144 E45.25327
G1 X107.966 Y73.526 E45.3454
G1 X107.998 Y75.001 E45.44354
G1 X107.966 Y76.474 E45.54154
G1 X107.876 Y77.856 E45.63367
G1 X107.715 Y79.316 E45.73138
G1 X107.498 Y80.722 E45.82601
G1 X107.214 Y82.156 E45.92326
G1 X106.873 Y83.545 E46.0184
G1 X106.477 Y84.908 E46.11281
G1 X106.011 Y86.282 E46.20933
G1 X105.492 Y87.614 E46.30442
G1 X104.895 Y88.974 E46.40322
G1 X104.276 Y90.224 E46.49601
G1 X103.572 Y91.511 E46.59359
G1 X102.841 Y92.714 E46.68723
G1 X102.024 Y93.937 E46.78507
G1 X101.179 Y95.09 E46.88016
G1 X100.283 Y96.208 E46.97546
G1 X99.329 Y97.296 E47.07172
G1 X98.334 Y98.334 E47.16737
G1 X97.296 Y99.329 E47.26301
G1 X96.208 Y100.283 E47.35927
G1 X95.09 Y101.179 E47.45457
G1 X93.937 Y102.024 E47.54966
G1 X92.714 Y102.841 E47.6475
G1 X91.511 Y103.572 E47.74114
G1 X90.224 Y104.276 E47.83872
G1 X88.974 Y104.895 E47.93151
G1 X87.614 Y105.492 E48.03031
G1 X86.282 Y106.011 E48.1254
G1 X84.908 Y106.477 E48.22192
G1 X83.545 Y106.873 E48.31633
G1 X82.156 Y107.214 E48.41147
G1 X80.722 Y107.498 E48.50872
G1 X79.316 Y107.715 E48.60335
G1 X77.856 Y107.876 E48.70106
G1 X76.474 Y107.966 E48.79319
G1 X75.001 Y107.998 E48.89119
G0 F7500 X75.201 Y107.994
G0 X75.16 Y106.044
G0 X75 Y104.395
;TYPE:SKIN
G1 F1500 X73.646 Y104.366 E48.98128
G1 X72.481 Y104.29 E49.05894
G1 X71.153 Y104.145 E49.14781
G1 X69.916 Y103.953 E49.23108
G1 X68.617 Y103.696 E49.31916
G1 X67.378 Y103.391 E49.40404
G1 X66.177 Y103.044 E49.4872
G1 X64.943 Y102.625 E49.57389
G1 X63.773 Y102.169 E49.65742
G1 X62.556 Y101.635 E49.74583
G1 X61.432 Y101.077 E49.8293
G1 X60.286 Y100.451 E49.91617
G1 X59.231 Y99.809 E49.99832
G1 X58.142 Y99.081 E50.08545
G1 X57.068 Y98.295 E50.17398
G1 X56.119 Y97.534 E50.2549
G1 X55.149 Y96.683 E50.34074
G1 X54.213 Y95.787 E50.42693
G1 X53.317 Y94.852 E50.51308
G1 X52.464 Y93.878 E50.5992
G1 X51.705 Y92.932 E50.67988
G1 X50.919 Y91.858 E50.76841
G1 X50.191 Y90.769 E50.85555
G1 X49.547 Y89.711 E50.93794
G1 X48.923 Y88.568 E51.02456
G1 X48.365 Y87.444 E51.10804
G1 X47.831 Y86.227 E51.19644
G1 X47.375 Y85.058 E51.27991
G1 X46.956 Y83.823 E51.36667
G1 X46.609 Y82.622 E51.44982
G1 X46.304 Y81.383 E51.5347
G1 X46.047 Y80.084 E51.62279
G1 X45.855 Y78.847 E51.70606
G1 X45.709 Y77.519 E51.79493
G1 X45.634 Y76.354 E51.87259
G1 X45.606 Y75.002 E51.96254
