;FLAVOR:Marlin
;TIME:261
;Filament used: 6.44168m
;Layer height: 3
;MINX:22
;MINY:22
;MINZ:0.3
;MAXX:128
;MAXY:128
;MAXZ:9.3
;Generated with Cura_SteamEngine 5.4.0
M105
M109 S0
M82 ;absolute extrusion mode
G28 ;Home
G1 Z15.0 F2000 ;Move the platform
G92 E0
G92 E0
;LAYER_COUNT:4
;LAYER:0
M107
M204 S1000
;MESH:test de extrucion.STL
G0 F6000 X125.829 Y125.829 Z0.3
;TYPE:WALL-OUTER
G1 F1219.5 X125.958 Y125.414 E0.12001
G1 F1319.6 X126 Y125.126 E0.19428
G1 F1346 X126 Y100.094 E6.45727
G1 F1347.3 X126 Y75.062 E12.71402
G1 F1348.7 X126 Y50.03 E18.96452
G1 F1350 X126 Y24.998 E25.20878
G1 F1322.2 X125.958 Y24.585 E25.31451
G1 F1219.5 X125.829 Y24.171 E25.43425
G1 X125.415 Y24.042 E25.55399
G1 F1321.6 X125 Y24 E25.66028
G1 F1350 X99.968 Y24 E31.90454
G1 F1348.7 X74.936 Y24 E38.15504
G1 F1347.3 X49.904 Y24 E44.41179
G1 F1346 X24.872 Y24 E50.67478
G1 F1319.6 X24.586 Y24.042 E50.74855
G1 F1219.5 X24.171 Y24.171 E50.86855
G1 X24.042 Y24.585 E50.9883
G1 F1321.6 X24 Y25 E51.09459
G1 F1350 X24 Y50.032 E57.33884
G1 F1348.7 X24 Y75.064 E63.58935
G1 F1347.3 X24 Y100.096 E69.84609
G1 F1346 X24 Y125.128 E76.10908
G1 F1319.6 X24.042 Y125.414 E76.18285
G1 F1219.5 X24.171 Y125.829 E76.30286
G1 X24.585 Y125.958 E76.4226
G1 F1321.6 X25 Y126 E76.52889
G1 F1350 X50.032 Y126 E82.77315
G1 F1348.7 X75.064 Y126 E89.02365
G1 F1347.3 X100.096 Y126 E95.28039
G1 F1346 X125.128 Y126 E101.54339
G1 F1319.6 X125.414 Y125.958 E101.61715
G1 F1219.5 X125.829 Y125.829 E101.73716
G0 F6000 X125.638 Y125.888
G0 X125.638 Y126.8
G0 X25 Y127.2
G0 X25 Y128
G1 F1321.6 X24.171 Y127.957 E101.94868
G1 F1255.8 X23.757 Y127.893 E102.06102
G1 F1185.3 X23.343 Y127.829 E102.18005
G1 F1152.4 X22.171 Y127.829 E102.52254
G1 X22.171 Y126.657 E102.86504
G1 F1185.3 X22.107 Y126.243 E102.98406
G1 F1255.8 X22.043 Y125.828 E103.09666
G1 F1317.1 X22.007 Y125.348 E103.21974
G1 F1345.3 X22 Y125 E103.30687
G1 F1350 X22 Y25 E128.25197
G1 F1321.6 X22.043 Y24.171 E128.4635
G1 F1255.8 X22.107 Y23.757 E128.57583
G1 F1185.3 X22.171 Y23.343 E128.69486
G1 F1152.4 X22.171 Y22.171 E129.03735
G1 X23.343 Y22.171 E129.37985
G1 F1185.3 X23.757 Y22.107 E129.49887
G1 F1255.8 X24.172 Y22.043 E129.61148
G1 F1317.1 X24.652 Y22.007 E129.73455
G1 F1345.3 X25 Y22 E129.82168
G1 F1350 X125 Y22 E154.76678
G1 F1321.6 X125.829 Y22.043 E154.97831
G1 F1255.8 X126.243 Y22.107 E155.09064
G1 F1185.3 X126.657 Y22.171 E155.20967
G1 F1152.4 X127.829 Y22.171 E155.55216
G1 X127.829 Y23.343 E155.89466
G1 F1185.3 X127.893 Y23.757 E156.01369
G1 F1256.4 X127.958 Y24.171 E156.12601
G1 F1322.2 X128 Y25 E156.33742
G1 F1350 X128 Y125 E181.28252
G1 F1345.3 X127.993 Y125.348 E181.36965
G1 F1317.1 X127.958 Y125.828 E181.49271
G1 F1256.4 X127.894 Y126.242 E181.60499
G1 F1185.3 X127.829 Y126.657 E181.72434
G1 F1152.4 X127.829 Y127.829 E182.06684
G1 X126.657 Y127.829 E182.40933
G1 F1185.3 X126.243 Y127.893 E182.52836
G1 F1255.8 X125.828 Y127.957 E182.64096
G1 F1317.1 X125.348 Y127.993 E182.76403
G1 F1345.3 X125 Y128 E182.85116
G1 F1350 X25 Y128 E207.79627
G0 F6000 X25.2 Y128
;MESH:NONMESH
G0 F300 X25.2 Y128 Z3.3
G0 F6000 X25.2 Y127.2
G0 X126.728 Y126.728
G0 X126.8 Y125.829
G0 X125.829 Y125.829
;TIME_ELAPSED:42.487323
;LAYER:1
M106 S85
;TYPE:WALL-OUTER
;MESH:test de extrucion.STL
G1 F1219.5 X125.958 Y125.414 E208.99634
G1 F1319.6 X126 Y125.126 E209.73906
G1 F1346 X126 Y100.094 E272.36897
G1 F1347.3 X126 Y75.062 E334.93643
G1 F1348.7 X126 Y50.03 E397.44145
G1 F1350 X126 Y24.998 E459.88403
G1 F1322.2 X125.958 Y24.585 E460.94132
G1 F1219.5 X125.829 Y24.171 E462.13876
G1 X125.415 Y24.042 E463.3362
G1 F1321.6 X125 Y24 E464.39908
G1 F1350 X99.968 Y24 E526.84166
G1 F1348.7 X74.936 Y24 E589.34668
G1 F1347.3 X49.904 Y24 E651.91414
G1 F1346 X24.872 Y24 E714.54405
G1 F1319.6 X24.586 Y24.042 E715.28172
G1 F1219.5 X24.171 Y24.171 E716.4818
G1 X24.042 Y24.585 E717.67924
G1 F1321.6 X24 Y25 E718.74212
G1 F1350 X24 Y50.032 E781.1847
G1 F1348.7 X24 Y75.064 E843.68972
G1 F1347.3 X24 Y100.096 E906.25718
G1 F1346 X24 Y125.128 E968.88708
G1 F1319.6 X24.042 Y125.414 E969.62475
G1 F1219.5 X24.171 Y125.829 E970.82483
G1 X24.585 Y125.958 E972.02227
G1 F1321.6 X25 Y126 E973.08515
G1 F1350 X50.032 Y126 E1035.52773
G1 F1348.7 X75.064 Y126 E1098.03275
G1 F1347.3 X100.096 Y126 E1160.60021
G1 F1346 X125.128 Y126 E1223.23012
G1 F1319.6 X125.414 Y125.958 E1223.96778
G1 F1219.5 X125.829 Y125.829 E1225.16786
G0 F7500 X125.638 Y125.888
G0 X125.638 Y126.8
G0 X25 Y127.2
G0 X25 Y128
G1 F1321.6 X24.171 Y127.957 E1227.28311
G1 F1255.8 X23.757 Y127.893 E1228.40648
G1 F1185.3 X23.343 Y127.829 E1229.59673
G1 F1152.4 X22.171 Y127.829 E1233.02169
G1 X22.171 Y126.657 E1236.44665
G1 F1185.3 X22.107 Y126.243 E1237.63689
G1 F1255.8 X22.043 Y125.828 E1238.76291
G1 F1317.1 X22.007 Y125.348 E1239.99366
G1 F1345.3 X22 Y125 E1240.86496
G1 F1350 X22 Y25 E1490.31598
G1 F1321.6 X22.043 Y24.171 E1492.43123
G1 F1255.8 X22.107 Y23.757 E1493.55459
G1 F1185.3 X22.171 Y23.343 E1494.74484
G1 F1152.4 X22.171 Y22.171 E1498.1698
G1 X23.343 Y22.171 E1501.59476
G1 F1185.3 X23.757 Y22.107 E1502.78501
G1 F1255.8 X24.172 Y22.043 E1503.91103
G1 F1317.1 X24.652 Y22.007 E1505.14177
G1 F1345.3 X25 Y22 E1506.01308
G1 F1350 X125 Y22 E1755.46409
G1 F1321.6 X125.829 Y22.043 E1757.57934
G1 F1255.8 X126.243 Y22.107 E1758.70271
G1 F1185.3 X126.657 Y22.171 E1759.89295
G1 F1152.4 X127.829 Y22.171 E1763.31791
G1 X127.829 Y23.343 E1766.74287
G1 F1185.3 X127.893 Y23.757 E1767.93312
G1 F1256.4 X127.958 Y24.171 E1769.05638
G1 F1322.2 X128 Y25 E1771.17046
G1 F1350 X128 Y125 E2020.62147
G1 F1345.3 X127.993 Y125.348 E2021.49278
G1 F1317.1 X127.958 Y125.828 E2022.72334
G1 F1256.4 X127.894 Y126.242 E2023.84618
G1 F1185.3 X127.829 Y126.657 E2025.03967
G1 F1152.4 X127.829 Y127.829 E2028.46463
G1 X126.657 Y127.829 E2031.88959
G1 F1185.3 X126.243 Y127.893 E2033.07984
G1 F1255.8 X125.828 Y127.957 E2034.20586
G1 F1317.1 X125.348 Y127.993 E2035.4366
G1 F1345.3 X125 Y128 E2036.30791
G1 F1350 X25 Y128 E2285.75892
G0 F7500 X25.2 Y128
;MESH:NONMESH
G0 F300 X25.2 Y128 Z6.3
G0 F7500 X25.2 Y127.2
G0 X126.728 Y126.728
G0 X126.8 Y125.829
G0 X125.829 Y125.829
;TIME_ELAPSED:87.207557
;LAYER:2
M106 S170
;TYPE:WALL-OUTER
;MESH:test de extrucion.STL
G1 F1219.5 X125.958 Y125.414 E2286.959
G1 F1319.6 X126 Y125.126 E2287.70172
G1 F1346 X126 Y100.094 E2350.33162
G1 F1347.3 X126 Y75.062 E2412.89908
G1 F1348.7 X126 Y50.03 E2475.4041
G1 F1350 X126 Y24.998 E2537.84668
G1 F1322.2 X125.958 Y24.585 E2538.90397
G1 F1219.5 X125.829 Y24.171 E2540.10142
G1 X125.415 Y24.042 E2541.29886
G1 F1321.6 X125 Y24 E2542.36174
G1 F1350 X99.968 Y24 E2604.80432
G1 F1348.7 X74.936 Y24 E2667.30934
G1 F1347.3 X49.904 Y24 E2729.8768
G1 F1346 X24.872 Y24 E2792.5067
G1 F1319.6 X24.586 Y24.042 E2793.24437
G1 F1219.5 X24.171 Y24.171 E2794.44445
G1 X24.042 Y24.585 E2795.64189
G1 F1321.6 X24 Y25 E2796.70477
G1 F1350 X24 Y50.032 E2859.14735
G1 F1348.7 X24 Y75.064 E2921.65237
G1 F1347.3 X24 Y100.096 E2984.21983
G1 F1346 X24 Y125.128 E3046.84974
G1 F1319.6 X24.042 Y125.414 E3047.5874
G1 F1219.5 X24.171 Y125.829 E3048.78748
G1 X24.585 Y125.958 E3049.98493
G1 F1321.6 X25 Y126 E3051.04781
G1 F1350 X50.032 Y126 E3113.49038
G1 F1348.7 X75.064 Y126 E3175.9954
G1 F1347.3 X100.096 Y126 E3238.56287
G1 F1346 X125.128 Y126 E3301.19277
G1 F1319.6 X125.414 Y125.958 E3301.93044
G1 F1219.5 X125.829 Y125.829 E3303.13052
G0 F9000 X125.638 Y125.888
G0 X125.638 Y126.8
G0 X25 Y127.2
G0 X25 Y128
G1 F1321.6 X24.171 Y127.957 E3305.24577
G1 F1255.8 X23.757 Y127.893 E3306.36914
G1 F1185.3 X23.343 Y127.829 E3307.55938
G1 F1152.4 X22.171 Y127.829 E3310.98434
G1 X22.171 Y126.657 E3314.4093
G1 F1185.3 X22.107 Y126.243 E3315.59955
G1 F1255.8 X22.043 Y125.828 E3316.72557
G1 F1317.1 X22.007 Y125.348 E3317.95631
G1 F1345.3 X22 Y125 E3318.82762
G1 F1350 X22 Y25 E3568.27863
G1 F1321.6 X22.043 Y24.171 E3570.39388
G1 F1255.8 X22.107 Y23.757 E3571.51725
G1 F1185.3 X22.171 Y23.343 E3572.7075
G1 F1152.4 X22.171 Y22.171 E3576.13245
G1 X23.343 Y22.171 E3579.55741
G1 F1185.3 X23.757 Y22.107 E3580.74766
G1 F1255.8 X24.172 Y22.043 E3581.87368
G1 F1317.1 X24.652 Y22.007 E3583.10443
G1 F1345.3 X25 Y22 E3583.97573
G1 F1350 X125 Y22 E3833.42674
G1 F1321.6 X125.829 Y22.043 E3835.54199
G1 F1255.8 X126.243 Y22.107 E3836.66536
G1 F1185.3 X126.657 Y22.171 E3837.85561
G1 F1152.4 X127.829 Y22.171 E3841.28057
G1 X127.829 Y23.343 E3844.70552
G1 F1185.3 X127.893 Y23.757 E3845.89577
G1 F1256.4 X127.958 Y24.171 E3847.01903
G1 F1322.2 X128 Y25 E3849.13312
G1 F1350 X128 Y125 E4098.58413
G1 F1345.3 X127.993 Y125.348 E4099.45543
G1 F1317.1 X127.958 Y125.828 E4100.68599
G1 F1256.4 X127.894 Y126.242 E4101.80884
G1 F1185.3 X127.829 Y126.657 E4103.00233
G1 F1152.4 X127.829 Y127.829 E4106.42729
G1 X126.657 Y127.829 E4109.85224
G1 F1185.3 X126.243 Y127.893 E4111.04249
G1 F1255.8 X125.828 Y127.957 E4112.16851
G1 F1317.1 X125.348 Y127.993 E4113.39926
G1 F1345.3 X125 Y128 E4114.27056
G1 F1350 X25 Y128 E4363.72157
G0 F9000 X25.2 Y128
;MESH:NONMESH
G0 F300 X25.2 Y128 Z9.3
G0 F9000 X25.2 Y127.2
G0 X126.728 Y126.728
G0 X126.8 Y125.829
G0 X125.829 Y125.829
;TIME_ELAPSED:131.758985
;LAYER:3
M106 S255
;TYPE:WALL-OUTER
;MESH:test de extrucion.STL
G92 E0
G1 F1219.5 X125.958 Y125.414 E1.20008
G1 F1319.6 X126 Y125.126 E1.9428
G1 F1346 X126 Y100.094 E64.5727
G1 F1347.3 X126 Y75.062 E127.14016
G1 F1348.7 X126 Y50.03 E189.64518
G1 F1350 X126 Y24.998 E252.08776
G1 F1322.2 X125.958 Y24.585 E253.14505
G1 F1219.5 X125.829 Y24.171 E254.3425
G1 X125.415 Y24.042 E255.53994
G1 F1321.6 X125 Y24 E256.60282
G1 F1350 X99.968 Y24 E319.0454
G1 F1348.7 X74.936 Y24 E381.55042
G1 F1347.3 X49.904 Y24 E444.11788
G1 F1346 X24.872 Y24 E506.74778
G1 F1319.6 X24.586 Y24.042 E507.48545
G1 F1219.5 X24.171 Y24.171 E508.68553
G1 X24.042 Y24.585 E509.88297
G1 F1321.6 X24 Y25 E510.94585
G1 F1350 X24 Y50.032 E573.38843
G1 F1348.7 X24 Y75.064 E635.89345
G1 F1347.3 X24 Y100.096 E698.46091
G1 F1346 X24 Y125.128 E761.09082
G1 F1319.6 X24.042 Y125.414 E761.82849
G1 F1219.5 X24.171 Y125.829 E763.02856
G1 X24.585 Y125.958 E764.22601
G1 F1321.6 X25 Y126 E765.28889
G1 F1350 X50.032 Y126 E827.73146
G1 F1348.7 X75.064 Y126 E890.23648
G1 F1347.3 X100.096 Y126 E952.80395
G1 F1346 X125.128 Y126 E1015.43385
G1 F1319.6 X125.414 Y125.958 E1016.17152
G1 F1219.5 X125.829 Y125.829 E1017.3716
G0 F9000 X125.638 Y125.888
G0 X125.638 Y126.8
G0 X25 Y127.2
G0 X25 Y128
G1 F1321.6 X24.171 Y127.957 E1019.48685
G1 F1255.8 X23.757 Y127.893 E1020.61022
G1 F1185.3 X23.343 Y127.829 E1021.80046
G1 F1152.4 X22.171 Y127.829 E1025.22542
G1 X22.171 Y126.657 E1028.65038
G1 F1185.3 X22.107 Y126.243 E1029.84063
G1 F1255.8 X22.043 Y125.828 E1030.96665
G1 F1317.1 X22.007 Y125.348 E1032.19739
G1 F1345.3 X22 Y125 E1033.0687
G1 F1350 X22 Y25 E1282.51971
G1 F1321.6 X22.043 Y24.171 E1284.63496
G1 F1255.8 X22.107 Y23.757 E1285.75833
G1 F1185.3 X22.171 Y23.343 E1286.94858
G1 F1152.4 X22.171 Y22.171 E1290.37353
G1 X23.343 Y22.171 E1293.79849
G1 F1185.3 X23.757 Y22.107 E1294.98874
G1 F1255.8 X24.172 Y22.043 E1296.11476
G1 F1317.1 X24.652 Y22.007 E1297.34551
G1 F1345.3 X25 Y22 E1298.21681
G1 F1350 X125 Y22 E1547.66782
G1 F1321.6 X125.829 Y22.043 E1549.78307
G1 F1255.8 X126.243 Y22.107 E1550.90644
G1 F1185.3 X126.657 Y22.171 E1552.09669
G1 F1152.4 X127.829 Y22.171 E1555.52165
G1 X127.829 Y23.343 E1558.9466
G1 F1185.3 X127.893 Y23.757 E1560.13685
G1 F1256.4 X127.958 Y24.171 E1561.26011
G1 F1322.2 X128 Y25 E1563.3742
G1 F1350 X128 Y125 E1812.82521
G1 F1345.3 X127.993 Y125.348 E1813.69651
G1 F1317.1 X127.958 Y125.828 E1814.92707
G1 F1256.4 X127.894 Y126.242 E1816.04992
G1 F1185.3 X127.829 Y126.657 E1817.24341
G1 F1152.4 X127.829 Y127.829 E1820.66837
G1 X126.657 Y127.829 E1824.09332
G1 F1185.3 X126.243 Y127.893 E1825.28357
G1 F1255.8 X125.828 Y127.957 E1826.40959
G1 F1317.1 X125.348 Y127.993 E1827.64034
G1 F1345.3 X125 Y128 E1828.51164
G1 F1350 X25 Y128 E2077.96265
G0 F9000 X25.2 Y128
;TIME_ELAPSED:261.775944
M204 S500
M107
M104 S0
M140 S0
G92 E0
G1 E-10 F2000
G28 X0 Y0
M84
M82 ;absolute extrusion mode
;End of Gcode
;SETTING_3 {"global_quality": "[general]\\nversion = 4\\nname = Extra Coarse #2\
;SETTING_3 \ndefinition = anet3d_a8_plus\\n\\n[metadata]\\ntype = quality_change
;SETTING_3 s\\nquality_type = extra coarse\\nsetting_version = 22\\n\\n[values]\
;SETTING_3 \nadhesion_type = none\\nlayer_height = 3\\n\\n", "extruder_quality":
;SETTING_3  ["[general]\\nversion = 4\\nname = Extra Coarse #2\\ndefinition = an
;SETTING_3 et3d_a8_plus\\n\\n[metadata]\\ntype = quality_changes\\nquality_type 
;SETTING_3 = extra coarse\\nsetting_version = 22\\nposition = 0\\n\\n[values]\\n
;SETTING_3 line_width = 3\\nmaterial_print_temperature = 0\\nretraction_enable =
;SETTING_3  False\\nspeed_print = 30\\n\\n"]}
