;FLAVOR:Marlin
;TIME:443
;Filament used: 0.640748m
;Layer height: 2
;MINX:30.756
;MINY:32.476
;MINZ:2
;MAXX:119.245
;MAXY:117.519
;MAXZ:44
;Generated with Cura_SteamEngine 5.4.0
M104 S200
M105
M109 S200
M82 ;absolute extrusion mode
G28 ;Home
G1 Z15.0 F2000 ;Move the platform
G92 E0
G92 E0
;LAYER_COUNT:22
;LAYER:0
M107
M204 S1000
G0 F7500 X46.095 Y35.969 Z2
;TYPE:SKIRT
G1 F1500 X46.413 Y35.58 E0.03342
G1 X46.843 Y35.117 E0.07546
G1 X47.217 Y34.763 E0.10971
G1 X47.703 Y34.359 E0.15175
G1 X48.104 Y34.066 E0.18479
G1 X48.637 Y33.725 E0.22688
G1 X49.083 Y33.478 E0.26079
G1 X49.654 Y33.208 E0.30281
G1 X50.124 Y33.021 E0.33646
G1 X50.725 Y32.825 E0.37851
G1 X51.212 Y32.699 E0.41197
G1 X51.833 Y32.58 E0.45403
G1 X52.339 Y32.517 E0.48795
G1 X52.97 Y32.478 E0.53
G1 X53.488 Y32.479 E0.56446
G1 X54.15 Y32.524 E0.6086
G1 X54.413 Y32.551 E0.62619
G1 X55.2 Y32.657 E0.67901
G1 X61.429 Y33.591 E1.098
G1 X64.082 Y33.951 E1.27609
G1 X66.582 Y34.217 E1.44333
G1 X69.194 Y34.422 E1.61762
G1 X71.754 Y34.55 E1.78812
G1 X74.319 Y34.606 E1.95879
G1 X76.885 Y34.587 E2.12948
G1 X79.496 Y34.496 E2.30327
G1 X82.036 Y34.337 E2.47256
G1 X84.616 Y34.099 E2.64492
G1 X87.144 Y33.795 E2.81429
G1 X88.523 Y33.598 E2.90695
G1 X94.821 Y32.654 E3.33058
G1 X95.834 Y32.525 E3.39851
G1 X96.465 Y32.48 E3.44059
G1 X96.972 Y32.476 E3.47431
G1 X97.603 Y32.511 E3.51635
G1 X98.108 Y32.572 E3.55019
G1 X98.73 Y32.687 E3.59227
G1 X99.218 Y32.809 E3.62573
G1 X99.82 Y33.001 E3.66776
G1 X100.294 Y33.186 E3.70161
G1 X100.867 Y33.453 E3.74366
G1 X101.305 Y33.692 E3.77685
G1 X101.84 Y34.028 E3.81887
G1 X102.256 Y34.328 E3.85299
G1 X102.744 Y34.73 E3.89505
G1 X103.11 Y35.072 E3.92837
G1 X103.544 Y35.532 E3.97044
G1 X103.869 Y35.923 E4.00426
G1 X104.241 Y36.434 E4.04631
G1 X104.511 Y36.859 E4.0798
G1 X104.816 Y37.413 E4.12187
G1 X105.033 Y37.874 E4.15576
G1 X105.265 Y38.462 E4.19781
G1 X105.422 Y38.95 E4.23191
G1 X105.584 Y39.591 E4.27589
G1 X105.642 Y39.856 E4.29394
G1 X105.776 Y40.594 E4.34383
G1 X106.812 Y46.802 E4.7625
G1 X107.301 Y49.492 E4.94437
G1 X107.823 Y51.97 E5.11283
G1 X108.424 Y54.473 E5.28406
G1 X109.098 Y56.963 E5.45565
G1 X109.835 Y59.408 E5.62553
G1 X110.654 Y61.874 E5.79837
G1 X111.538 Y64.3 E5.97013
G1 X112.485 Y66.691 E6.1412
G1 X113.508 Y69.069 E6.3134
G1 X114.579 Y71.382 E6.48296
G1 X115.187 Y72.621 E6.57477
G1 X118.063 Y78.384 E7.00321
G1 X118.367 Y79.017 E7.04992
G1 X118.706 Y79.835 E7.10882
G1 X118.865 Y80.311 E7.14221
G1 X119.027 Y80.923 E7.18432
G1 X119.126 Y81.427 E7.21848
G1 X119.208 Y82.053 E7.26048
G1 X119.242 Y82.554 E7.29389
G1 X119.245 Y83.186 E7.33593
G1 X119.216 Y83.686 E7.36924
G1 X119.14 Y84.314 E7.41132
G1 X119.047 Y84.814 E7.44515
G1 X118.892 Y85.427 E7.48721
G1 X118.735 Y85.914 E7.52125
G1 X118.503 Y86.502 E7.5633
G1 X118.291 Y86.953 E7.59645
G1 X117.988 Y87.507 E7.63845
G1 X117.715 Y87.939 E7.67245
G1 X117.343 Y88.451 E7.71455
G1 X117.026 Y88.835 E7.74767
G1 X116.594 Y89.296 E7.78969
G1 X116.218 Y89.648 E7.82396
G1 X115.73 Y90.05 E7.86601
G1 X115.312 Y90.352 E7.90032
G1 X114.746 Y90.707 E7.94476
G1 X114.514 Y90.842 E7.96262
G1 X113.765 Y91.244 E8.01916
G1 X108.202 Y94.138 E8.43629
G1 X105.895 Y95.378 E8.61052
G1 X103.655 Y96.668 E8.78247
G1 X101.463 Y98.013 E8.95354
G1 X99.331 Y99.404 E9.12288
G1 X97.182 Y100.896 E9.2969
G1 X95.161 Y102.386 E9.46393
G1 X93.101 Y103.996 E9.63785
G1 X91.114 Y105.642 E9.80948
G1 X89.171 Y107.345 E9.98135
G1 X87.274 Y109.107 E10.15358
G1 X86.31 Y110.04 E10.24282
G1 X81.695 Y114.578 E10.67336
G1 X81.019 Y115.212 E10.73501
G1 X80.535 Y115.618 E10.77704
G1 X80.127 Y115.918 E10.81072
G1 X79.595 Y116.26 E10.85279
G1 X79.155 Y116.505 E10.88629
G1 X78.585 Y116.777 E10.92831
G1 X78.114 Y116.966 E10.96207
G1 X77.513 Y117.164 E11.00416
G1 X77.027 Y117.291 E11.03757
G1 X76.407 Y117.412 E11.07959
G1 X75.9 Y117.478 E11.1136
G1 X75.269 Y117.519 E11.15567
G1 X74.763 Y117.519 E11.18933
G1 X74.132 Y117.48 E11.23138
G1 X73.638 Y117.419 E11.26449
G1 X73.017 Y117.302 E11.30653
G1 X72.518 Y117.174 E11.3408
G1 X71.917 Y116.978 E11.38285
G1 X71.455 Y116.795 E11.4159
G1 X70.883 Y116.526 E11.45795
G1 X70.434 Y116.278 E11.49207
G1 X69.901 Y115.938 E11.53412
G1 X69.489 Y115.637 E11.56807
G1 X68.987 Y115.218 E11.61156
G1 X68.789 Y115.041 E11.62923
G1 X68.242 Y114.519 E11.67952
G1 X63.701 Y110.053 E12.1032
G1 X61.802 Y108.238 E12.27794
G1 X59.874 Y106.497 E12.45074
G1 X57.935 Y104.842 E12.62032
G1 X55.924 Y103.222 E12.7921
G1 X53.887 Y101.674 E12.96229
G1 X51.786 Y100.169 E13.1342
G1 X49.634 Y98.719 E13.30682
G1 X47.49 Y97.359 E13.47571
G1 X45.237 Y96.019 E13.65009
G1 X43.006 Y94.775 E13.82001
G1 X41.837 Y94.157 E13.90797
G1 X36.119 Y91.183 E14.3367
G1 X35.249 Y90.704 E14.40276
G1 X34.713 Y90.369 E14.44481
G1 X34.3 Y90.073 E14.47861
G1 X33.811 Y89.673 E14.52064
G1 X33.441 Y89.329 E14.55424
G1 X33.006 Y88.87 E14.59631
G1 X32.686 Y88.486 E14.62956
G1 X32.312 Y87.977 E14.67157
G1 X32.038 Y87.55 E14.70532
G1 X31.731 Y86.997 E14.7474
G1 X31.512 Y86.537 E14.78129
G1 X31.278 Y85.95 E14.82332
G1 X31.121 Y85.469 E14.85698
G1 X30.963 Y84.857 E14.89903
G1 X30.868 Y84.363 E14.93249
G1 X30.788 Y83.736 E14.97454
G1 X30.756 Y83.23 E15.00826
G1 X30.756 Y82.597 E15.05037
G1 X30.788 Y82.091 E15.0841
G1 X30.868 Y81.464 E15.12614
G1 X30.963 Y80.97 E15.15961
G1 X31.121 Y80.358 E15.20165
G1 X31.284 Y79.862 E15.23638
G1 X31.532 Y79.247 E15.28049
G1 X31.638 Y79.008 E15.29788
G1 X31.997 Y78.262 E15.35296
G1 X34.829 Y72.589 E15.77473
G1 X35.935 Y70.291 E15.94438
G1 X37.01 Y67.888 E16.11949
G1 X37.98 Y65.539 E16.28855
G1 X38.895 Y63.138 E16.45947
G1 X39.746 Y60.699 E16.6313
G1 X40.519 Y58.264 E16.80125
G1 X41.226 Y55.796 E16.97202
G1 X41.874 Y53.266 E17.14575
G1 X42.447 Y50.737 E17.31824
G1 X42.941 Y48.221 E17.48881
G1 X43.179 Y46.859 E17.58078
G1 X44.238 Y40.516 E18.00856
G1 X44.411 Y39.611 E18.06985
G1 X44.563 Y38.998 E18.11186
G1 X44.716 Y38.514 E18.14563
G1 X44.945 Y37.924 E18.18773
G1 X45.158 Y37.464 E18.22145
G1 X45.459 Y36.909 E18.26344
G1 X45.726 Y36.483 E18.29689
G1 X46.095 Y35.969 E18.33898
G0 F7500 X49.344 Y38.302
G1 F1500 X49.774 Y37.839 E18.38101
G1 X50.26 Y37.435 E18.42305
G1 X50.793 Y37.094 E18.46514
G1 X51.364 Y36.824 E18.50716
G1 X51.965 Y36.628 E18.54921
G1 X52.586 Y36.509 E18.59127
G1 X53.217 Y36.47 E18.63332
G1 X53.879 Y36.515 E18.67746
G1 X54.607 Y36.613 E18.72632
G1 X60.864 Y37.551 E19.14719
G1 X63.578 Y37.919 E19.32938
G1 X66.239 Y38.203 E19.5074
G1 X68.928 Y38.414 E19.68682
G1 X71.608 Y38.548 E19.86532
G1 X74.296 Y38.606 E20.04416
G1 X76.982 Y38.587 E20.22284
G1 X79.671 Y38.493 E20.40182
G1 X82.345 Y38.325 E20.58005
G1 X85.027 Y38.078 E20.75921
G1 X87.697 Y37.757 E20.9381
G1 X89.089 Y37.558 E21.03164
G1 X95.355 Y36.618 E21.45312
G1 X96.119 Y36.515 E21.5044
G1 X96.75 Y36.47 E21.54648
G1 X97.381 Y36.505 E21.58852
G1 X98.003 Y36.62 E21.6306
G1 X98.605 Y36.812 E21.67263
G1 X99.178 Y37.079 E21.71468
G1 X99.713 Y37.415 E21.75671
G1 X100.201 Y37.817 E21.79876
G1 X100.635 Y38.277 E21.84083
G1 X101.007 Y38.788 E21.88288
G1 X101.312 Y39.342 E21.92494
G1 X101.544 Y39.93 E21.96699
G1 X101.706 Y40.571 E22.01097
G1 X101.84 Y41.309 E22.06087
G1 X102.876 Y47.517 E22.47954
G1 X103.372 Y50.248 E22.66418
G1 X103.923 Y52.861 E22.84182
G1 X104.544 Y55.449 E23.01886
G1 X105.253 Y58.068 E23.19934
G1 X106.023 Y60.623 E23.37685
G1 X106.879 Y63.198 E23.55736
G1 X107.797 Y65.719 E23.73583
G1 X108.785 Y68.212 E23.91421
G1 X109.843 Y70.673 E24.09241
G1 X110.971 Y73.108 E24.27092
G1 X111.608 Y74.407 E24.36716
G1 X114.457 Y80.116 E24.79159
G1 X114.761 Y80.749 E24.8383
G1 X114.998 Y81.335 E24.88034
G1 X115.16 Y81.947 E24.92246
G1 X115.242 Y82.573 E24.96445
G1 X115.245 Y83.205 E25.0065
G1 X115.169 Y83.833 E25.04858
G1 X115.014 Y84.446 E25.09064
G1 X114.782 Y85.034 E25.13268
G1 X114.479 Y85.588 E25.17469
G1 X114.107 Y86.1 E25.21679
G1 X113.675 Y86.561 E25.25881
G1 X113.187 Y86.963 E25.30087
G1 X112.621 Y87.318 E25.34531
G1 X111.919 Y87.695 E25.39832
G1 X106.336 Y90.599 E25.81694
G1 X103.954 Y91.88 E25.99685
G1 X101.614 Y93.228 E26.17649
G1 X99.338 Y94.624 E26.3541
G1 X97.083 Y96.095 E26.5332
G1 X94.858 Y97.64 E26.71339
G1 X92.735 Y99.205 E26.88883
G1 X90.601 Y100.873 E27.06901
G1 X88.51 Y102.605 E27.24962
G1 X86.497 Y104.37 E27.42771
G1 X84.524 Y106.202 E27.6068
G1 X83.505 Y107.188 E27.70113
G1 X78.936 Y111.682 E28.12744
G1 X78.448 Y112.147 E28.17228
G1 X77.964 Y112.553 E28.2143
G1 X77.432 Y112.895 E28.25637
G1 X76.862 Y113.167 E28.29838
G1 X76.261 Y113.365 E28.34047
G1 X75.641 Y113.486 E28.3825
G1 X75.01 Y113.527 E28.42456
G1 X74.379 Y113.488 E28.46661
G1 X73.758 Y113.371 E28.50865
G1 X73.157 Y113.175 E28.5507
G1 X72.585 Y112.906 E28.59275
G1 X72.052 Y112.566 E28.6348
G1 X71.55 Y112.147 E28.6783
G1 X71.047 Y111.667 E28.72455
G1 X66.465 Y107.161 E29.15203
G1 X64.527 Y105.309 E29.33035
G1 X62.525 Y103.501 E29.50979
G1 X60.495 Y101.769 E29.6873
G1 X58.377 Y100.062 E29.86825
G1 X56.265 Y98.457 E30.04471
G1 X54.06 Y96.878 E30.22511
G1 X51.835 Y95.378 E30.40361
G1 X49.573 Y93.944 E30.58177
G1 X47.258 Y92.567 E30.76095
G1 X44.893 Y91.248 E30.94108
G1 X43.683 Y90.608 E31.03214
G1 X37.965 Y87.634 E31.46087
G1 X37.369 Y87.312 E31.50594
G1 X36.833 Y86.977 E31.54798
G1 X36.344 Y86.577 E31.59001
G1 X35.909 Y86.118 E31.63207
G1 X35.535 Y85.609 E31.67409
G1 X35.228 Y85.056 E31.71616
G1 X34.994 Y84.469 E31.7582
G1 X34.836 Y83.857 E31.80024
G1 X34.756 Y83.23 E31.84229
G1 X34.756 Y82.597 E31.8844
G1 X34.836 Y81.97 E31.92644
G1 X34.994 Y81.358 E31.96849
G1 X35.242 Y80.743 E32.0126
G1 X35.576 Y80.049 E32.06383
G1 X38.408 Y74.376 E32.48561
G1 X39.573 Y71.956 E32.66427
G1 X40.678 Y69.485 E32.84433
G1 X41.7 Y67.011 E33.02239
G1 X42.657 Y64.499 E33.20121
G1 X43.531 Y61.994 E33.37769
G1 X44.352 Y59.408 E33.55817
G1 X45.091 Y56.83 E33.73657
G1 X45.759 Y54.222 E33.91565
G1 X46.363 Y51.553 E34.09769
G1 X46.872 Y48.961 E34.2734
G1 X47.119 Y47.548 E34.36882
G1 X48.173 Y41.233 E34.7947
G1 X48.293 Y40.574 E34.83926
G1 X48.445 Y39.961 E34.88127
G1 X48.674 Y39.371 E34.92337
G1 X48.975 Y38.816 E34.96537
G1 X49.344 Y38.302 E35.00746
;MESH:ESTRELLA.STL
G0 F7500 X38.861 Y83.201
G0 X71.678 Y106.206
G0 X75 Y105.735
;TYPE:WALL-OUTER
G1 F1500 X89.401 Y91.575 E36.35093
G1 X89.715 Y91.352 E36.37655
G1 X107.598 Y82.05 E37.71744
G1 X98.562 Y63.947 E39.06333
G1 X98.467 Y63.613 E39.08643
G1 X95.146 Y43.728 E40.42751
G1 X75.254 Y46.712 E41.76554
G1 X74.883 Y46.731 E41.79025
G1 X54.854 Y43.728 E43.13747
G1 X51.541 Y63.572 E44.47577
G1 X51.44 Y63.943 E44.50135
G1 X42.402 Y82.05 E45.84754
G1 X60.248 Y91.331 E47.1856
G1 X60.545 Y91.522 E47.20909
G1 X75 Y105.735 E48.55759
G0 F7500 X75.142 Y105.595
G0 X74.9 Y102.93
G0 X73.912 Y101.791
G0 X75 Y100.685
;TYPE:SKIN
G1 F1500 X86.822 Y89.058 E49.6606
G1 X87.161 Y88.75 E49.69107
G1 X87.618 Y88.416 E49.72872
G1 X88.055 Y88.156 E49.76255
G1 X102.796 Y80.489 E50.86783
G1 X95.35 Y65.57 E51.97698
G1 X95.2 Y65.217 E52.00249
G1 X95.011 Y64.638 E52.04301
G1 X94.929 Y64.277 E52.06763
G1 X92.179 Y47.813 E53.178
G1 X75.749 Y50.279 E54.28317
G1 X75.309 Y50.32 E54.31256
G1 X74.648 Y50.322 E54.35653
G1 X74.365 Y50.292 E54.37546
G1 X57.822 Y47.814 E55.48818
G1 X55.046 Y64.434 E56.60907
G1 X54.85 Y65.097 E56.65506
G1 X54.645 Y65.581 E56.69002
G1 X47.205 Y80.489 E57.79834
G1 X62.004 Y88.187 E58.90799
G1 X62.467 Y88.463 E58.94385
G1 X63.085 Y88.965 E58.99681
G1 X75 Y100.685 E60.10857
G0 F7500 X70.607 Y105.152
G0 X38.861 Y83.201
G0 X42.965 Y74.955
G0 X50.36 Y78.644
G1 F1500 X52.924 Y81.208 E60.34977
G0 F7500 X51.284 Y84.36
G0 X49.067 Y73.285
G0 X52.243 Y74.87
G1 F1500 X75.126 Y97.753 E62.50247
G0 F7500 X80.573 Y97.587
G0 X77.978 Y94.948
G1 F1500 X54.126 Y71.096 E64.74632
G0 F7500 X50.95 Y69.512
G0 X52.834 Y65.738
G0 X56.009 Y67.322
G1 F1500 X80.83 Y92.144 E67.08137
G0 F7500 X83.682 Y89.339
G1 F1500 X57.315 Y62.972 E69.56182
G0 F7500 X54.789 Y56.56
G0 X58.125 Y58.125
G1 F1500 X86.656 Y86.656 E72.24584
G0 F7500 X88.863 Y89.643
G0 X90.359 Y84.702
G1 F1500 X58.935 Y53.279 E75.20197
G0 F7500 X55.434 Y52.695
G0 X55.973 Y49.46
G0 X61.736 Y50.422
G1 F1500 X94.081 Y82.767 E78.24479
G0 F7500 X95.72 Y85.918
G0 X99.441 Y83.983
G0 X97.802 Y80.831
G1 F1500 X68.387 Y51.417 E81.01192
G0 F7500 X75.609 Y48.731
G0 X74.948 Y52.32
G1 F1500 X98.011 Y75.383 E83.18155
G0 F7500 X96.907 Y64.909
G0 X92.971 Y64.687
G1 F1500 X79.954 Y51.67 E84.40611
G0 F7500 X82.072 Y47.661
G0 X84.873 Y50.932
G1 F1500 X91.835 Y57.894 E85.06105
G0 F7500 X94.202 Y50.516
G0 X90.699 Y51.101
G1 F1500 X89.791 Y50.193 E85.14647
;MESH:NONMESH
G0 F300 X89.791 Y50.193 Z4
G0 F7500 X98.679 Y48.71
G0 X111.139 Y83.201
G0 X78.221 Y106.305
G0 X75 Y105.735
;TIME_ELAPSED:61.979320
;LAYER:1
M106 S85
;TYPE:WALL-OUTER
;MESH:ESTRELLA.STL
G1 F1500 X89.401 Y91.575 E86.48994
G1 X89.715 Y91.352 E86.51556
G1 X107.598 Y82.05 E87.85645
G1 X98.562 Y63.947 E89.20234
G1 X98.467 Y63.613 E89.22544
G1 X95.146 Y43.728 E90.56652
G1 X75.254 Y46.712 E91.90454
G1 X74.883 Y46.731 E91.92925
G1 X54.854 Y43.728 E93.27648
G1 X51.541 Y63.572 E94.61478
G1 X51.44 Y63.943 E94.64036
G1 X42.402 Y82.05 E95.98655
G1 X60.248 Y91.331 E97.32461
G1 X60.545 Y91.522 E97.3481
G1 X75 Y105.735 E98.6966
G0 F8250 X75.142 Y105.595
G0 X74.9 Y102.93
G0 X73.912 Y101.791
G0 X75 Y100.685
;TYPE:SKIN
G1 F1500 X86.822 Y89.058 E99.79961
G1 X87.235 Y88.689 E99.83645
G1 X87.618 Y88.416 E99.86774
G1 X88.055 Y88.156 E99.90156
G1 X102.796 Y80.489 E101.00684
G1 X95.35 Y65.57 E102.11599
G1 X95.2 Y65.217 E102.14151
G1 X95.011 Y64.638 E102.18202
G1 X94.929 Y64.279 E102.20652
G1 X92.178 Y47.813 E103.31702
G1 X75.748 Y50.279 E104.42219
G1 X75.309 Y50.32 E104.45152
G1 X74.576 Y50.322 E104.50028
G1 X57.821 Y47.814 E105.62725
G1 X55.054 Y64.386 E106.74488
G1 X54.85 Y65.096 E106.79402
G1 X54.647 Y65.579 E106.82887
G1 X47.205 Y80.489 E107.93737
G1 X62.002 Y88.185 E109.04684
G1 X62.511 Y88.499 E109.08663
G1 X63.085 Y88.965 E109.13581
G1 X75 Y100.685 E110.24756
G0 F8250 X70.607 Y105.152
G0 X75 Y109.458
G0 X111.139 Y83.201
G0 X106.061 Y73.005
G0 X98.666 Y76.696
G1 F1500 X90.982 Y84.379 E110.97038
G0 F8250 X96.782 Y72.923
G1 F1500 X73.399 Y96.305 E113.17006
G0 F8250 X70.909 Y98.837
G0 X68.057 Y96.033
G0 X70.548 Y93.5
G1 F1500 X94.898 Y69.15 E115.46076
G0 F8250 X96.907 Y64.909
G0 X93.117 Y65.274
G1 F1500 X67.696 Y90.695 E117.85221
G0 F8250 X65.205 Y93.228
G0 X62.353 Y90.423
G0 X64.844 Y87.89
G1 F1500 X92.263 Y60.471 E120.43162
G0 F8250 X95.375 Y57.546
G0 X94.957 Y55.039
G0 X91.453 Y55.624
G1 F1500 X61.439 Y85.638 E123.25516
G0 F8250 X59.8 Y88.789
G0 X56.08 Y86.854
G0 X57.719 Y83.702
G1 F1500 X90.644 Y50.777 E126.35254
G0 F8250 X94.148 Y50.192
G0 X82.072 Y47.661
G0 X84.825 Y50.938
G1 F1500 X53.997 Y81.766 E129.25265
G0 F8250 X52.357 Y84.918
G0 X48.635 Y82.983
G0 X50.275 Y79.831
G1 F1500 X78.17 Y51.936 E131.87684
G0 F8250 X75.609 Y48.731
G0 X72.426 Y52.023
G1 F1500 X54.896 Y69.554 E133.526
G0 F8250 X51.72 Y67.97
G0 X54.789 Y56.56
G0 X57.619 Y61.174
G1 F1500 X67.507 Y51.286 E134.4562
G0 F8250 X55.976 Y49.445
G0 X62.587 Y50.549
G1 F1500 X58.751 Y54.385 E134.81707
;MESH:NONMESH
G0 F300 X58.751 Y54.385 Z6
G0 F8250 X50.6 Y53.026
G0 X38.861 Y83.201
G0 X72.787 Y107.297
G0 X74.657 Y105.396
;TIME_ELAPSED:100.870227
;LAYER:2
M106 S170
;TYPE:WALL-OUTER
;MESH:ESTRELLA.STL
G1 F1500 X75.174 Y104.888 E134.86529
G1 X75.608 Y104.506 E134.90375
G1 X76.795 Y103.341 E135.01438
G1 X77.581 Y102.663 E135.08343
G1 X78.8 Y101.47 E135.19689
G1 X79.138 Y101.179 E135.22656
G1 X79.77 Y100.565 E135.28517
G1 X80.13 Y100.251 E135.31695
G1 X80.678 Y99.714 E135.36799
G1 X81.103 Y99.343 E135.40552
G1 X81.741 Y98.723 E135.46469
G1 X82.087 Y98.425 E135.49507
G1 X82.635 Y97.886 E135.5462
G1 X83.072 Y97.506 E135.58472
G1 X83.711 Y96.883 E135.64409
G1 X84.048 Y96.594 E135.67362
G1 X84.595 Y96.055 E135.7247
G1 X85.039 Y95.669 E135.76384
G1 X85.601 Y95.116 E135.81629
G1 X86.018 Y94.753 E135.85306
G1 X86.623 Y94.159 E135.90946
G1 X87.004 Y93.832 E135.94286
G1 X87.567 Y93.278 E135.9954
G1 X87.99 Y92.91 E136.0327
G1 X88.629 Y92.288 E136.09202
G1 X89.156 Y91.835 E136.13825
G1 X89.879 Y91.425 E136.19354
G1 X91.796 Y90.425 E136.33736
G1 X92.296 Y90.146 E136.37545
G1 X94.217 Y89.145 E136.51954
G1 X94.717 Y88.864 E136.5577
G1 X96.665 Y87.849 E136.70381
